X:1375
T:Galer\'on
C:anon.
O:Venezuela
Z:Transcribed by Frank Nordberg - http://www.musicaviva.com
F:http://abc.musicaviva.com/tunes/venezuela/galeron.abc
M:63/84
L:1/8
Q:1/4=160
K:Dm
AA|"Dm"A2B B2A|"A7"A4 GG|"A7"G2A A2G|"Dm"F4:|
|:dd|"Dm"d2B B2A|"A7"A2 G2 ^cc|"A7"^c2A A2G|"Dm"F4:|
W:
W:
W:  From Musica Viva - http://www.musicaviva.com
W:  the Internet center for free sheet music downloads.
